X:39
T:Syngogue. JJo.039, The
B:J.Johnson Choice Collection Vol 8 1758
Z:vmp.Simon Wilson 2013 www.village-music-project.org.uk
Z:Dance added by John Chambers 2017
M:C|
L:1/8
%Q:1/2=90
K:G
|:\
gdBG BGBG | edcBA2D2 | gdBG BGBG | edcBA4 |
b4a2g2 | fgef d^cBA | b4a2g2 | fgefd4 :|
|:\
d=cBc dcBc | d2=f2e2c2 | edcd edcd | e2g2f2d2 |
g4d2c2 | BcAB GFED | g4d2c2 | BcABG4 :|
%%begintext align
%% First Man turn the 2d Wo. then take his Partner
%% by the right hand foot and cast off || the
%% 1st Wo. do the same foot and cst up 1st Cu. lead
%% thro' the 3d Cu. the 2d Cu. follow and turn your
%% Partner at top hand round four half Way
%% hands across back again and cast off.
%%endtext
